X: 5360
T: BuckForis
R: reel
M: 4/4
K: Amajor
|:a3 e c2 ce|agae BAAA|agae c2 ce|fecA BcAe:|
f3 a e2ce|fedf eAce|fffa efaf|eAcA cBBB|
f3 a e2 ce|fedf fece|f3 f fefa|g3 g gefg||

